X:365
T: EINS BAUREN SOHN HAT SICH VERMESSN
N: E1542
O: Europa, Mitteleuropa, Deutschland
R: Staende -, Bauern - Lied, Spott
M: 4/4
L: 1/8
K: F
A2 | A2A2A2A2 | A2B2c4 | z2
A2A2c2 | BGBcdcdc | d2d2d4 | G4z2
c2 | cBAGF2B2 | AGFED2
A2 | AGFED2A2 | B6G2 | AGABc2
A2 | BABcd2d2 | cBAGF2
d2 | cBAGF2

@@@ Tune index: 5049
